X: 1
T:Happy Birthday
L:1/4
M:3/4
R:air
Q:1/4=140
V:1 clef=treble
V:2 clef=bass
K:G
%ALTO [V:1][K:clef=alto middle=c]
%BASS [V:1][K:clef=bass middle=d]
[V:1]z3 D/2D/2 | "G"dBG | "C"FE "Am"c/2c/2 | "G"BG "D7"A |
w:**|***|****|***|
%
[V:1] "G"G2 D/2D/2 | ED[B,G] | "D7"[F2A2] D/2D/2 |
w:* Hap-py Bith-day to you, Hap-py
%
[V:1] ED[CA] | "G"[B,2G2] D/2D/2 | "Bm"dB"Em"G |
w:Birth-day to you, Hap-py Birth-day dear
%
[V:1] "C"[DF][CE] "Cm6"[_E/2c/2]c/2 | "G"[DB][DG] "D7"[CA] | "G"[B,3G3] |]
w:\-\-\--\-\-\-, Hap-py Birth-day to you
